!!!OTL: 1729. Das Pappelmaul.
!!!ARE: Europa, Mitteleuropa, Deutschland; France, Elsass, Ergenau
!!!SCT: E1729
!!!TXL: @@DE
!!!YEM: Copyright 1995, estate of Helmut Schaffrath.
**kern	**text
*ICvox	*
*M2/4	*
*k[f#c#g#d#]	*
*E:	*
{8B	Hör
=1	=1
8e	Lieb-
8e	-chen,
16eL	was
16f#J	.
16g#L	ich
16aJ	.
=2	=2
8b	ſa-
8b	-gen
4b}	will,
=3	=3
{8e	ſchweig
8e	doch
16eL	nur
16f#J	.
16g#L	ein
16aJ	.
=4	=4
8b	we-
8B	-nig
4B}	ſtill,
=5	=5
{8e	man
8e	hat
16eL	vor
16f#J	.
16g#L	dir
16aJ	.
=6	=6
8b	kei-
8b	-ne
4b}	Ruh,
=7	=7
{8.cc#	im-
16dd#	-mer
16ff#L	im-
16eeJ	.
16dd#L	-mer
16cc#J	.
=8	=8
8b	pap-
8b	-pelſt
4b}	du!
=9	=9
{8.a	immer,
16b/	.
16dd#L	im-
16cc#J	.
16bL	-mer
16aJ	.
=10	=10
8.g#	pa,
16b	pa,
16ee	pa,
16b/	pa,
16g#	pa,
16e}	pa,
=11	=11
{8f#	pa,
8cc#	pa,
8b	pappelſt
8d#	.
=12	=12
4e	du!
8r}	.
==	==
!!!AGN: Scherz - Lied, Soldaten - Lied
!!!ONB: ESAC (Essen Associative Code) Database: ERK3
!!!AMT: simple duple
!!!AIN: vox
!!!EED: Helmut Schaffrath
!!!EEV: 1.0
!!!GTL: Scherz-, Spiel- und Spottlieder.
!!!URL-scan: https://rosdok.uni-rostock.de/mcrviewer/recordIdentifier/rosdok_ppn745177999/iview2/phys_0524.iview2?x=-449.8344612962892&y=1488.3796034697443&scale=0.47549036216460333&rotation=0&layout=singlePageLayout
!!!ENC: Anna Maria Matuszewska
!!!EEV: 2025/08/01
*-	*-
